packages/foundations/assets/icons/functional/images/business & payment/cash.svg

<svg xmlns="http://www.w3.org/2000/svg" width="32" height="32" fill="none"><path fill="#1A1C1F" fill-rule="evenodd" d="M9.947 2.538c-1.15.164-1.953.397-2.751.797A8.06 8.06 0 0 0 2.845 9.12c-.128.696-.129 2.09-.001 2.747.337 1.73 1.038 3.063 2.246 4.27 1.175 1.175 2.453 1.866 4.102 2.219.791.169 2.28.168 3.075-.002 3.225-.691 5.58-3.028 6.302-6.254.107-.476.124-.698.124-1.593-.001-1.152-.053-1.5-.377-2.508-.877-2.73-3.302-4.851-6.129-5.361-.461-.083-1.907-.147-2.24-.1m2.247 2.147c2.467.628 4.301 2.793 4.496 5.305.049.64-.014 1.451-.157 2.009-.457 1.792-1.834 3.373-3.529 4.051-.855.342-1.205.403-2.284.402-.912 0-1.027-.012-1.517-.148a6 6 0 0 1-2.579-1.444 6 6 0 0 1-1.805-3.367c-.122-.694-.075-1.798.107-2.494.573-2.206 2.39-3.918 4.654-4.386.553-.114 2.045-.073 2.614.072m-1.927 1.907c-1.165.206-1.839.879-2.172 2.169l-.121.466h-.721v.906h.694v.694h-.694v.906h.729l.064.352c.302 1.637 1.304 2.419 3.104 2.421.654.001 1.499-.193 1.905-.438.547-.329.376-1.174-.239-1.177a8 8 0 0 0-.778.113c-1.2.219-1.815-.013-2.042-.77a1.8 1.8 0 0 1-.076-.376v-.125h1.973v-.906H9.867v-.694h2.026v-.906h-.986c-1.116 0-1.066.024-.905-.434.128-.362.324-.62.567-.744.321-.164.919-.193 1.566-.077.594.107.822.072 1.042-.162.185-.198.186-.648.001-.845-.367-.391-1.785-.572-2.911-.373m7.287 11.995c-.962.215-1.963.96-2.405 1.791-.196.367-.376.866-.376 1.044 0 .068-.019.125-.042.125s-.725-.266-1.56-.591c-1.937-.754-2.186-.817-3.224-.818-.989-.001-1.489.111-2.347.527-1.202.583-1.692 1.15-1.848 2.139-.129.82.326 1.784 1.065 2.256.247.157 7.656 2.876 8.523 3.127.966.28 1.345.307 4.927.346l3.333.037 2.267.462c1.246.253 2.345.461 2.441.461.396 0 .799-.327.926-.75.125-.418-.105-.919-.511-1.114-.234-.112-4.561-.983-5.31-1.069-.249-.029-1.737-.053-3.306-.054-3.009-.001-3.474-.03-4.294-.261-.205-.058-2.065-.719-4.133-1.469-2.594-.941-3.789-1.398-3.853-1.476-.128-.153-.118-.277.039-.462.161-.192.789-.507 1.235-.621.385-.098 1.224-.11 1.63-.023.3.064 1.756.625 3.722 1.434 1.575.648 2.01.791 2.587.853.677.071 4.061.067 4.402-.006.945-.203 1.116-1.401.265-1.868-.105-.058-.618-.079-2.391-.1l-2.258-.027-.156-.174a.51.51 0 0 1-.155-.403c0-.497.485-1.114 1.015-1.29.228-.076.553-.084 2.622-.067 2.358.019 2.364.02 2.882.16 1.224.332 1.783.635 3.427 1.861.792.59 1.263.907 1.383.929.709.133 1.338-.556 1.15-1.261-.078-.293-.361-.575-1.206-1.203-1.976-1.47-3.018-1.999-4.627-2.348-.636-.138-.684-.14-3.073-.157-1.954-.013-2.493-.002-2.766.06"/></svg>

<svg width="32" height="32" viewBox="0 0 32 32" fill="none" xmlns="http://www.w3.org/2000/svg"><path d="M9.947 2.538 C 8.797 2.702,7.994 2.935,7.196 3.335 C 4.896 4.490,3.307 6.602,2.845 9.120 C 2.717 9.816,2.716 11.210,2.844 11.867 C 3.181 13.597,3.882 14.930,5.090 16.137 C 6.265 17.312,7.543 18.003,9.192 18.356 C 9.983 18.525,11.472 18.524,12.267 18.354 C 15.492 17.663,17.847 15.326,18.569 12.100 C 18.676 11.624,18.693 11.402,18.693 10.507 C 18.692 9.355,18.640 9.007,18.316 7.999 C 17.439 5.269,15.014 3.148,12.187 2.638 C 11.726 2.555,10.280 2.491,9.947 2.538 M12.194 4.685 C 14.661 5.313,16.495 7.478,16.690 9.990 C 16.739 10.630,16.676 11.441,16.533 11.999 C 16.076 13.791,14.699 15.372,13.004 16.050 C 12.149 16.392,11.799 16.453,10.720 16.452 C 9.808 16.452,9.693 16.440,9.203 16.304 C 8.205 16.027,7.355 15.551,6.624 14.860 C 5.669 13.957,5.047 12.798,4.819 11.493 C 4.697 10.799,4.744 9.695,4.926 8.999 C 5.499 6.793,7.316 5.081,9.580 4.613 C 10.133 4.499,11.625 4.540,12.194 4.685 M10.267 6.592 C 9.102 6.798,8.428 7.471,8.095 8.761 L 7.974 9.227 7.614 9.227 L 7.253 9.227 7.253 9.680 L 7.253 10.133 7.600 10.133 L 7.947 10.133 7.947 10.480 L 7.947 10.827 7.600 10.827 L 7.253 10.827 7.253 11.280 L 7.253 11.733 7.617 11.733 L 7.982 11.733 8.046 12.085 C 8.348 13.722,9.350 14.504,11.150 14.506 C 11.804 14.507,12.649 14.313,13.055 14.068 C 13.602 13.739,13.431 12.894,12.816 12.891 C 12.734 12.890,12.384 12.942,12.038 13.004 C 10.838 13.223,10.223 12.991,9.996 12.234 C 9.954 12.096,9.920 11.927,9.920 11.858 L 9.920 11.733 10.907 11.733 L 11.893 11.733 11.893 11.280 L 11.893 10.827 10.880 10.827 L 9.867 10.827 9.867 10.480 L 9.867 10.133 10.880 10.133 L 11.893 10.133 11.893 9.680 L 11.893 9.227 10.907 9.227 C 9.791 9.227,9.841 9.251,10.002 8.793 C 10.130 8.431,10.326 8.173,10.569 8.049 C 10.890 7.885,11.488 7.856,12.135 7.972 C 12.729 8.079,12.957 8.044,13.177 7.810 C 13.362 7.612,13.363 7.162,13.178 6.965 C 12.811 6.574,11.393 6.393,10.267 6.592 M17.554 18.587 C 16.592 18.802,15.591 19.547,15.149 20.378 C 14.953 20.745,14.773 21.244,14.773 21.422 C 14.773 21.490,14.754 21.547,14.731 21.547 C 14.708 21.547,14.006 21.281,13.171 20.956 C 11.234 20.202,10.985 20.139,9.947 20.138 C 8.958 20.137,8.458 20.249,7.600 20.665 C 6.398 21.248,5.908 21.815,5.752 22.804 C 5.623 23.624,6.078 24.588,6.817 25.060 C 7.064 25.217,14.473 27.936,15.340 28.187 C 16.306 28.467,16.685 28.494,20.267 28.533 L 23.600 28.570 25.867 29.032 C 27.113 29.285,28.212 29.493,28.308 29.493 C 28.704 29.493,29.107 29.166,29.234 28.743 C 29.359 28.325,29.129 27.824,28.723 27.629 C 28.489 27.517,24.162 26.646,23.413 26.560 C 23.164 26.531,21.676 26.507,20.107 26.506 C 17.098 26.505,16.633 26.476,15.813 26.245 C 15.608 26.187,13.748 25.526,11.680 24.776 C 9.086 23.835,7.891 23.378,7.827 23.300 C 7.699 23.147,7.709 23.023,7.866 22.838 C 8.027 22.646,8.655 22.331,9.101 22.217 C 9.486 22.119,10.325 22.107,10.731 22.194 C 11.031 22.258,12.487 22.819,14.453 23.628 C 16.028 24.276,16.463 24.419,17.040 24.481 C 17.717 24.552,21.101 24.548,21.442 24.475 C 22.387 24.272,22.558 23.074,21.707 22.607 C 21.602 22.549,21.089 22.528,19.316 22.507 L 17.058 22.480 16.902 22.306 C 16.782 22.171,16.747 22.080,16.747 21.903 C 16.747 21.406,17.232 20.789,17.762 20.613 C 17.990 20.537,18.315 20.529,20.384 20.546 C 22.742 20.565,22.748 20.566,23.266 20.706 C 24.490 21.038,25.049 21.341,26.693 22.567 C 27.485 23.157,27.956 23.474,28.076 23.496 C 28.785 23.629,29.414 22.940,29.226 22.235 C 29.148 21.942,28.865 21.660,28.020 21.032 C 26.044 19.562,25.002 19.033,23.393 18.684 C 22.757 18.546,22.709 18.544,20.320 18.527 C 18.366 18.514,17.827 18.525,17.554 18.587 " fill="#1A1C1F" stroke="none" fill-rule="evenodd"></path></svg>
